img/phone.svg

<svg width="18" height="18" viewBox="0 0 18 18" fill="none" xmlns="http://www.w3.org/2000/svg">
<path d="M10.4584 4.66657C12.4737 4.66657 13.3334 5.5262 13.3334 7.54157H15.25C15.25 4.45095 13.549 2.7499 10.4584 2.7499V4.66657ZM13.7378 9.88278C13.5536 9.71541 13.3116 9.62615 13.0629 9.63383C12.8142 9.64152 12.5782 9.74556 12.4047 9.92399L10.1114 12.2824C9.55944 12.177 8.44969 11.8311 7.30736 10.6916C6.16503 9.54832 5.81907 8.4357 5.71653 7.88753L8.07307 5.59328C8.25171 5.41994 8.35591 5.1839 8.3636 4.9351C8.37129 4.68631 8.28187 4.44428 8.11428 4.26024L4.57323 0.366529C4.40557 0.181912 4.17254 0.0699284 3.92363 0.0543607C3.67473 0.038793 3.42956 0.120868 3.24019 0.283154L1.16061 2.06661C0.994924 2.2329 0.896032 2.45421 0.882693 2.68857C0.868318 2.92815 0.594235 8.60341 4.9949 13.006C8.83398 16.8441 13.6429 17.1249 14.9673 17.1249C15.1609 17.1249 15.2797 17.1192 15.3114 17.1172C15.5457 17.1041 15.7669 17.0048 15.9324 16.8384L17.7149 14.7578C17.8773 14.5686 17.9595 14.3235 17.9441 14.0746C17.9287 13.8257 17.8169 13.5926 17.6324 13.4248L13.7378 9.88278Z" fill="#BDBDBD"/>
</svg>

<svg width="18" height="18" fill="none" xmlns="http://www.w3.org/2000/svg"><path d="M10.458 4.667c2.016 0 2.875.86 2.875 2.875h1.917c0-3.091-1.701-4.792-4.792-4.792v1.917Zm3.28 5.216a.96.96 0 0 0-1.333.041l-2.294 2.358c-.552-.105-1.661-.45-2.804-1.59-1.142-1.144-1.488-2.256-1.59-2.804l2.356-2.295a.958.958 0 0 0 .041-1.333L4.574.367A.958.958 0 0 0 3.24.283L1.16 2.067a.958.958 0 0 0-.277.622c-.015.24-.289 5.914 4.112 10.317 3.839 3.838 8.648 4.119 9.972 4.119.194 0 .313-.006.344-.008a.95.95 0 0 0 .621-.279l1.783-2.08a.958.958 0 0 0-.083-1.333l-3.894-3.542Z" fill="#BDBDBD"/></svg>
